X: 1
T: Mac's Fancy
R: jig
M: 6/8
L: 1/8
K: Amix
|:eAA fed|eAA A2f|eAA gfe|dBG GBd|
eAA fed|eAA A2f|gag gfe|1 dBG GBd:|2 dBG GAB||
|:A2a aea|aea aec|Ace agf|gdB GAB|
A2a aea|aea aef|gag gfe|1 dBG GAB:|2 dBG GBd||


Tune 2724	Setting 15968

